X:1
T:Key arr Miller - Star Spangled Banner
T:Key arr Miller - Star Spangled Banner
T:Key arr Miller
C:Key arr Miller
%%score [ ( 1 2 ) 3 4 5 ]
L:1/8
Q:1/4=100
M:3/4
K:Bb
V:1 treble nm="Violin I" snm="Vln."
V:2 treble 
V:3 treble nm="Violin II" snm="Vln."
V:4 alto nm="Viola" snm="Vla."
V:5 bass nm="Violoncello" snm="Vlc."
V:1
!f! F>D |:"^A" B,2 D2 F2 | B4 d>c | B2 D2 =E2 | F4 FF | d3 c B2 | A4 GA | %7
w: O- *|say can you|see, by the|dawn's ear- ly|light, what so|proud- ly we|hailed, by the|
[Q:1/4=98] B2[Q:1/4=96]!>(! B2[Q:1/4=94] F2 | %8
w: twi- light's last|
[Q:1/4=92] D2!>)!!mp![Q:1/4=90] !breath!B,2[Q:1/4=100] F>D |"^B" B,2 D2 F2 | B4 d>c | B2 D2 =E2 | %12
w: glea- ming, whose broad|stripes and bright|stars, though the|per- il- ous|
 F4 FF | d3 c B2 | A4 GA |"^no ritardando!"!<(! B2 B2 F2 | %16
w: fight, o'er the|ram- parts we|watched, were so|gal- lant- ly|
 D2!<)!!f! !breath!B,2!mp! !tenuto!d!tenuto!d ||"^C" !tenuto!d2 !tenuto!e2 !tenuto!f2 | %18
w: stream- ing! And the|rock- ets' red|
 !tenuto!f4 !tenuto!e!tenuto!d | !tenuto!c2 !tenuto!d2 !tenuto!e2 | !tenuto!e4 !tenuto!e2 | %21
w: glare, the bombs|burs- ting in|air, gave|
 d3 c B2 |!mf! A4 G>A | !>!B2 !>!D2 !>!=E2 | F4 !>!F2 |!f!"^D" B2 B2 BA | G2 G2 G2 | c2 ed cB | %28
w: proof through the|night, that our|flag was still|there! Oh|say does that *|star- spang- led|ban- ner * yet *|
 (!tenuto!B2[Q:1/4=65] !breath!!fermata!A2)[Q:1/4=95] FF | B3 c de | %30
w: wave? * o'er the|land * of the|
[Q:1/4=85] !fermata!f4[Q:1/4=90] Bc | !>!d3 !>!e !>!c2 | !fermata!B6 |] %33
w: free, and the|home of the|brave!|
V:2
 x2 |: x6 | x6 | x6 | x6 | x6 | x6 | x6 | x6 | x6 | x6 | x6 | x6 | x6 | x6 | x6 | x6 || x6 | x6 | %19
 x6 | x6 | x6 | x6 | x6 | x6 | x6 | x6 | x6 | x6 | x6 | b4 x2 | x6 | x6 |] %33
V:3
!f! C>C |: B,2 C2 D2 | G4 A>G | D2 B,2 D2 | C4 DD | G3 E E2 | E4 F^F | G2!>(! E2 D2 | %8
 C2!>)!!mp! G,2 C>C | B,2 C2 D2 | G4 G>F | E2 A,2 D2 | D4 DD | G3 G G2 | =E4 F^F |!<(! G2 F2 E2 | %16
 B,2!<)!!f! G,2 z2 || z2 z2 e2 | e4 dc | B2 c2 c2 | c4 c2 | B3 A G2 | G4 F>F | F2 B,2 C2 | %24
 C4 !>!E2 | D2 E2 E=E | F2 D2 D2 | F2 C=E DF | !breath!_G4 FE | E3 F G2 | B4 BA | _A3 z G2 | %32
 !fermata!F6 |] %33
V:4
!f! A,>A, |: G,2 A,2 B,2 | E4 C>C | B,2 G,2 A,2 | A,4 A,A, | B,3 C C2 | ^C4 G,=C | F2!>(! C2 B,2 | %8
 F,2!>)!!mp! D,2 A,>F, | D,2 A,2 C2 | D4 B,>A, | G,2 ^F,2 B,2 | =B,4 _B,B, | B,3 C D2 | =B,4 CD | %15
!<(! D2 C2 B,2 | A,2!<)!!f! E,2 z2 || z6 | z2 z2 cB | _A2 B2 A2 | _A4 A2 | G3 _G F2 | =E4 B,>C | %23
 D2 G,2 G,2 | F,4 !>!A,2 | F,2 ^F,2 G,2 | G,2 B,2 =B,2 | _A,2 =A,C B,D | !breath!E4 _A,=A, | %29
 B,4 C2 | _D4 DC | C3 z D2 | !fermata!D6 |] %33
V:5
!f! A,>A, |: G,2 _G,2 F,2 | E,4 D,>E, | F,2 E,2 D,2 | C,4 D,C, | G,,3 _A,, B,,2 | A,,4 G,,D, | %7
 D,2!>(! C,2 B,,2 | A,,2!>)!!mp! G,,2 D,>C, | B,,2 A,,2 _A,,2 | G,,4 G,,>A,, | B,,2 D,2 G,2 | %12
 _A,4 B,G, | E,3 =E, F,2 | ^F,4 D,C, |!<(! B,,2 _A,,2 G,,2 | F,,2!<)!!f! E,,2 z2 || z6 | z6 | z6 | %20
 z2 z2 B,2 | B,3 C C2 | D4 G,>F, | F,2 E,2 B,,2 | A,,4 !>!C,2 | B,,2 =B,,2 C,2 | D,2 E,2 =E,2 | %27
 F,2 ^F,2 G,2 | !breath!C4 C,_C, | B,,4 _A,,2 | _G,,4 G,,=G,, | _A,,3 z B,,2 | !fermata!B,,6 |] %33

